dist/assets/img/pay/4.svg

<svg width="80" height="70" viewBox="0 0 80 70" fill="none" xmlns="http://www.w3.org/2000/svg">
<path d="M26.2655 51.6705L24.4027 57.3169H24.084L22.2212 51.6705C21.9025 50.715 20.9024 50.0573 19.7594 50.0573H15.292V62.3488H19.7649V55.0843H20.0837L22.6443 62.3488H25.8424L28.3976 55.0843H28.7163V62.3488H33.1893V50.0573H28.7218C27.5844 50.0573 26.5843 50.715 26.2655 51.6705ZM51.0315 62.3488H55.532V58.7141H60.06C62.4283 58.7141 64.4451 57.5426 65.2252 55.8957H51.0315V62.3488ZM43.0583 51.3536L39.9097 57.3217H39.591V50.0573H35.118V62.3488H38.9151C39.9152 62.3488 40.8218 61.8398 41.2394 61.0524L44.3881 55.0891H44.7069V62.3488H49.1797V50.0573H45.3827C44.3825 50.0573 43.476 50.5662 43.0583 51.3536Z" fill="#006848"/>
<path fill-rule="evenodd" clip-rule="evenodd" d="M60.5045 50.0573C61.7958 50.0573 62.9663 50.4894 63.851 51.2C64.8401 51.9874 65.461 53.1205 65.461 54.3833C65.461 54.6426 65.428 54.897 65.3786 55.1467H57.0701C54.2566 55.1467 51.8718 53.5335 51.0695 51.3056C51.0586 51.2816 51.0531 51.2528 51.0421 51.224C51.0201 51.1568 51.0036 51.0847 50.9816 51.0175C50.8992 50.7054 50.8442 50.3885 50.8223 50.0573H60.5045Z" fill="url(#paint0_linear)"/>
<path fill-rule="evenodd" clip-rule="evenodd" d="M33.8643 25.7703H45.6509V44.3815H33.8643V25.7703Z" fill="#FF5F00"/>
<path fill-rule="evenodd" clip-rule="evenodd" d="M34.634 35.0756C34.634 31.301 36.6414 27.9375 39.7593 25.77C37.4956 24.2004 34.5913 23.2287 31.4734 23.2287C24.0417 23.2287 18.0195 28.5355 18.0195 35.0756C18.0195 41.6156 24.0417 46.9224 31.4734 46.9224C34.634 46.9224 37.4956 45.9508 39.7593 44.3811C36.6414 42.2136 34.634 38.8501 34.634 35.0756Z" fill="#EB001B"/>
<path fill-rule="evenodd" clip-rule="evenodd" d="M61.5412 35.0756C61.5412 41.6156 55.519 46.9224 48.0874 46.9224C44.9268 46.9224 42.0652 45.9508 39.8015 44.3811C42.9194 42.2136 44.9268 38.8501 44.9268 35.0756C44.9268 31.301 42.9194 27.9375 39.7588 25.77C42.0652 24.2004 44.9695 23.2287 48.0874 23.2287C55.519 23.2287 61.5412 28.5355 61.5412 35.0756Z" fill="#F79E1B"/>
<path d="M36.3418 7.12145L33.0104 20.6874H28.9956L32.3697 7.12145H36.3418ZM53.2552 15.8665L55.3481 10.7839L56.544 15.9038H53.2552V15.8665ZM57.7399 20.6874H61.4557L58.2097 7.12145H54.7928C54.024 7.12145 53.3834 7.49517 53.0844 8.13049L47.0622 20.6874H51.2906L52.1021 18.6693H57.2273L57.7399 20.6874ZM47.2758 16.2402C47.3185 12.6525 41.5952 12.4656 41.6379 10.8586C41.6379 10.3728 42.1505 9.84959 43.3464 9.73747C43.9443 9.66273 45.5246 9.62536 47.3185 10.3354L48.0018 7.49517C47.0195 7.15882 45.7809 6.89722 44.2433 6.89722C40.2712 6.89722 37.495 8.72844 37.4523 11.3818C37.4096 13.3252 39.4597 14.4463 40.9546 15.0816C42.4922 15.7543 43.0474 16.2028 43.0474 16.7634C43.0474 17.6977 41.7661 18.0714 40.6556 18.1088C38.6482 18.1461 37.4523 17.6229 36.5127 17.2492L35.7866 20.239C36.7262 20.6127 38.4346 20.949 40.2285 20.949C44.4996 20.9116 47.233 19.0804 47.2758 16.2402ZM30.6613 7.12145L24.1266 20.6874H19.8982L16.6522 9.84959C16.4814 9.1769 16.3105 8.95267 15.7553 8.65369C14.7729 8.20523 13.1927 7.75677 11.7832 7.49517L11.8686 7.12145H18.7023C19.5993 7.12145 20.3253 7.64465 20.5389 8.5042L22.2473 16.3523L26.433 7.12145H30.6613Z" fill="#2A2A6C"/>
<defs>
<linearGradient id="paint0_linear" x1="65.461" y1="65.9746" x2="50.9119" y2="65.9746" gradientUnits="userSpaceOnUse">
<stop stop-color="#1E5CD8"/>
<stop offset="1" stop-color="#02AFFF"/>
</linearGradient>
</defs>
</svg>

<svg width="80" height="70" fill="none" xmlns="http://www.w3.org/2000/svg"><path d="M26.265 51.67l-1.862 5.647h-.319l-1.863-5.647c-.319-.955-1.319-1.613-2.462-1.613h-4.467V62.35h4.473v-7.265h.319l2.56 7.265h3.198l2.556-7.265h.318v7.265h4.473V50.057h-4.467c-1.138 0-2.138.658-2.457 1.613zm24.767 10.68h4.5v-3.635h4.528c2.368 0 4.385-1.171 5.165-2.818H51.032v6.453zm-7.974-10.995l-3.148 5.968h-.319v-7.265h-4.473V62.35h3.797c1 0 1.907-.51 2.324-1.297l3.15-5.963h.318v7.26h4.473V50.057h-3.797c-1 0-1.907.51-2.325 1.297z" fill="#006848"/><path fill-rule="evenodd" clip-rule="evenodd" d="M60.505 50.057c1.29 0 2.461.432 3.346 1.143.99.787 1.61 1.92 1.61 3.183 0 .26-.033.514-.082.764H57.07c-2.813 0-5.198-1.614-6-3.841-.011-.024-.017-.053-.028-.082-.022-.067-.038-.14-.06-.206a5.04 5.04 0 01-.16-.96h9.682z" fill="url(#paint0_linear)"/><path fill-rule="evenodd" clip-rule="evenodd" d="M33.864 25.77h11.787v18.612H33.864V25.77z" fill="#FF5F00"/><path fill-rule="evenodd" clip-rule="evenodd" d="M34.634 35.076c0-3.775 2.007-7.139 5.125-9.306-2.263-1.57-5.168-2.541-8.286-2.541-7.431 0-13.453 5.306-13.453 11.847 0 6.54 6.022 11.846 13.453 11.846 3.161 0 6.023-.971 8.286-2.54-3.118-2.168-5.125-5.532-5.125-9.306z" fill="#EB001B"/><path fill-rule="evenodd" clip-rule="evenodd" d="M61.541 35.076c0 6.54-6.022 11.846-13.454 11.846-3.16 0-6.022-.971-8.286-2.54 3.118-2.168 5.126-5.532 5.126-9.306 0-3.775-2.008-7.139-5.168-9.306a14.857 14.857 0 018.328-2.541c7.432 0 13.454 5.306 13.454 11.847z" fill="#F79E1B"/><path d="M36.342 7.121L33.01 20.687h-4.014L32.37 7.121h3.972zm16.913 8.745l2.093-5.082 1.196 5.12h-3.289v-.037zm4.485 4.821h3.716L58.21 7.121h-3.417c-.769 0-1.41.374-1.709 1.01l-6.022 12.556h4.229l.811-2.018h5.125l.513 2.018zM47.276 16.24c.042-3.587-5.68-3.774-5.638-5.381 0-.486.513-1.01 1.708-1.122.598-.074 2.179-.112 3.973.598l.683-2.84c-.983-.336-2.221-.598-3.759-.598-3.972 0-6.748 1.831-6.79 4.485-.043 1.943 2.007 3.064 3.502 3.7 1.537.672 2.092 1.12 2.092 1.681 0 .935-1.28 1.308-2.391 1.346-2.008.037-3.204-.486-4.143-.86l-.726 2.99c.94.374 2.648.71 4.441.71 4.272-.037 7.005-1.869 7.048-4.709zM30.66 7.121l-6.534 13.566h-4.229L16.652 9.85c-.17-.673-.341-.897-.897-1.196-.982-.449-2.562-.897-3.972-1.159l.086-.374h6.833c.897 0 1.623.524 1.837 1.383l1.708 7.848 4.186-9.23h4.228z" fill="#2A2A6C"/><defs><linearGradient id="paint0_linear" x1="65.461" y1="65.975" x2="50.912" y2="65.975" gradientUnits="userSpaceOnUse"><stop stop-color="#1E5CD8"/><stop offset="1" stop-color="#02AFFF"/></linearGradient></defs></svg>
